src/icons/crown.svg

<?xml version="1.0" encoding="UTF-8"?>
<svg width="512px" height="512px" viewBox="0 0 512 512" version="1.1" xmlns="http://www.w3.org/2000/svg" xmlns:xlink="http://www.w3.org/1999/xlink">
    <title>crown</title>
    <g id="crown" stroke="none" stroke-width="1" fill="none" fill-rule="evenodd">
        <path d="M406.926536,340 C414.146574,340 420,345.272374 420,351.775701 L420,351.775701 L420,388.224299 C420,394.727626 414.146574,400 406.926536,400 L406.926536,400 L113.073464,400 C105.853426,400 100,394.727626 100,388.224299 L100,388.224299 L100,351.775701 C100,345.272374 105.853426,340 113.073464,340 L113.073464,340 Z M262.122092,80 C276.32375,80 287.876393,91.8322243 287.876393,106.37757 C287.876393,113.431686 285.142349,119.834318 280.722421,124.572232 C280.737138,124.592329 280.755125,124.609077 280.769841,124.630849 L335.882411,200.176209 C344.48353,211.966564 347.020888,219.005607 361.392605,219.005607 C373.623855,219.005607 375.471931,214.127013 384.12047,205.267499 L418.112877,170.452456 C412.253978,165.612381 408.491398,158.213264 408.491398,149.921495 C408.491398,135.37615 420.044041,123.543925 434.245699,123.543925 C448.447356,123.543925 460,135.37615 460,149.921495 C460,161.39532 452.796972,171.154183 442.789586,174.775028 C442.856629,176.007656 442.768328,177.262056 442.465818,178.508082 L420,309.730469 C418.639519,315.299067 413.766642,319.214671 408.164468,319.244816 L262.594663,320.0822 L111.508602,320.0822 C105.876995,320.0822 100.969779,316.153198 99.6092977,310.556129 L78.3517792,178.91505 C78.0410924,177.635529 77.9511568,176.345959 78.0296461,175.08151 C67.5922045,171.713555 60,161.710176 60,149.921495 C60,135.37615 71.5526437,123.543925 85.7543012,123.543925 C99.9559588,123.543925 111.508602,135.37615 111.508602,149.921495 C111.508602,158.112778 107.844133,165.441555 102.106239,170.283305 L135.886071,205.141892 C144.423417,213.952837 149.506991,219.003933 161.627047,219.003933 C175.957884,219.003933 179.799899,212.033555 188.404288,200.355409 L243.919116,125.01772 C239.255543,120.244636 236.367791,113.649406 236.367791,106.37757 C236.367791,91.8322243 247.920435,80 262.122092,80 Z" id="Combined-Shape" fill="#000000" fill-rule="nonzero"></path>
    </g>
</svg>

<svg xmlns="http://www.w3.org/2000/svg" width="512" height="512" viewBox="0 0 512 512">
    <path fill-rule="nonzero" d="M406.927 340c7.22 0 13.073 5.272 13.073 11.776v36.448c0 6.504-5.853 11.776-13.073 11.776H113.073c-7.22 0-13.073-5.272-13.073-11.776v-36.448c0-6.504 5.853-11.776 13.073-11.776zM262.122 80c14.202 0 25.754 11.832 25.754 26.378a26.602 26.602 0 0 1-7.154 18.194c.015.02.033.037.048.059l55.112 75.545c8.602 11.79 11.139 18.83 25.51 18.83 12.232 0 14.08-4.879 22.728-13.739l33.993-34.815c-5.859-4.84-9.622-12.239-9.622-20.53 0-14.546 11.553-26.378 25.755-26.378 14.201 0 25.754 11.832 25.754 26.377 0 11.474-7.203 21.233-17.21 24.854a12.82 12.82 0 0 1-.324 3.733L420 309.73c-1.36 5.57-6.233 9.485-11.836 9.515l-145.57.837H111.51c-5.632 0-10.54-3.929-11.9-9.526l-21.257-131.64c-.31-1.28-.4-2.57-.322-3.834C67.592 171.714 60 161.71 60 149.922c0-14.546 11.553-26.378 25.754-26.378 14.202 0 25.755 11.832 25.755 26.377 0 8.192-3.665 15.52-9.403 20.362l33.78 34.859c8.537 8.81 13.621 13.862 25.741 13.862 14.33 0 18.173-6.97 26.777-18.649l55.515-75.337c-4.663-4.773-7.551-11.369-7.551-18.64C236.368 91.832 247.92 80 262.122 80z"/>
</svg>
